Papirus/64x64/apps/civilization5.svg

<?xml version="1.0" encoding="UTF-8" standalone="no"?>
<svg
   id="_图层_1"
   version="1.1"
   viewBox="0 0 64 64" width="64" height="64"
   sodipodi:docname="civilization5.svg"
   xml:space="preserve"
   inkscape:version="1.4 (e7c3feb100, 2024-10-09)"
   xmlns:inkscape="http://www.inkscape.org/namespaces/inkscape"
   xmlns:sodipodi="http://sodipodi.sourceforge.net/DTD/sodipodi-0.dtd"
   xmlns="http://www.w3.org/2000/svg"
   xmlns:svg="http://www.w3.org/2000/svg"><sodipodi:namedview
     id="namedview26"
     pagecolor="#505050"
     bordercolor="#eeeeee"
     borderopacity="1"
     inkscape:showpageshadow="0"
     inkscape:pageopacity="0"
     inkscape:pagecheckerboard="0"
     inkscape:deskcolor="#505050"
     inkscape:zoom="10.6875"
     inkscape:cx="32"
     inkscape:cy="32"
     inkscape:window-width="1920"
     inkscape:window-height="939"
     inkscape:window-x="0"
     inkscape:window-y="34"
     inkscape:window-maximized="1"
     inkscape:current-layer="_图层_1" /><!-- Generator: Adobe Illustrator 29.0.1, SVG Export Plug-In . SVG Version: 2.1.0 Build 192)  --><defs
     id="defs6"><style
       id="style1">
      .st0 {
        fill-opacity: .5;
      }

      .st0, .st1, .st2, .st3, .st4, .st5, .st6, .st7 {
        fill: #fff;
      }

      .st8 {
        fill: #133c9a;
      }

      .st2, .st9 {
        display: none;
      }

      .st3 {
        fill-opacity: .2;
      }

      .st4 {
        fill-opacity: .9;
      }

      .st10 {
        fill: #3370ff;
      }

      .st11 {
        fill: url(#_未命名的渐变_3);
      }

      .st12 {
        fill: url(#_未命名的渐变);
      }

      .st5 {
        fill-opacity: .3;
      }

      .st6 {
        fill-opacity: 0;
      }

      .st7 {
        fill-opacity: .7;
      }

      .st13 {
        fill: #00d6b9;
      }

      .st14 {
        fill: url(#_未命名的渐变_2);
      }
    </style><radialGradient
       id="_未命名的渐变"
       data-name="未命名的渐变"
       cx="123.9"
       cy="-40.2"
       fx="123.9"
       fy="-40.2"
       r="59.4"
       gradientTransform="translate(-26.8 25.5) scale(.6 -.7)"
       gradientUnits="userSpaceOnUse"><stop
         offset="0"
         stop-color="#db202e"
         id="stop1" /><stop
         offset="1"
         stop-color="#e01b24"
         id="stop2" /></radialGradient><radialGradient
       id="_未命名的渐变_2"
       data-name="未命名的渐变 2"
       cx="67.6"
       cy="26.8"
       fx="67.6"
       fy="26.8"
       r="105.2"
       gradientTransform="translate(-26.6 25.3) scale(.6 -.7)"
       gradientUnits="userSpaceOnUse"><stop
         offset="0"
         stop-color="#ffb648"
         id="stop3" /><stop
         offset="1"
         stop-color="#ff7800"
         stop-opacity="0"
         id="stop4" /></radialGradient><radialGradient
       id="_未命名的渐变_3"
       data-name="未命名的渐变 3"
       cx="61.7"
       cy="18.6"
       fx="61.7"
       fy="18.6"
       r="68"
       gradientTransform="translate(-26.8 25.8) scale(.6 -.7)"
       gradientUnits="userSpaceOnUse"><stop
         offset="0"
         stop-color="#c64600"
         id="stop5" /><stop
         offset="1"
         stop-color="#a51d2d"
         id="stop6" /></radialGradient></defs><path
     class="st1"
     d="M47.5,64.1H13.8c-7.6,0-13.8-6.3-13.8-13.8V13.7C0,6.2,6.2,0,13.7,0h36.6c7.5,0,13.7,6.2,13.7,13.7v36.6c0,7.5-6.2,13.7-13.7,13.7h-2.9.1Z"
     id="path6"
     style="fill:#e4e4e4;fill-opacity:1" /><g
     id="g26"
     transform="translate(9.5697293e-5,-0.49999129)"><path
       style="opacity:0.2"
       d="m 15.048828,5 a 7.024471,6.979559 0 0 0 -6.5078124,9.666016 l 16.8574224,41.80664 a 7.024471,6.979559 0 0 0 5.410156,4.421875 7.0246128,6.9797433 0 0 1 -5.244141,-9.613281 L 32,35.320312 21.580078,9.4765625 A 7.024471,6.979559 0 0 0 15.048828,5 Z m 15.761719,55.894531 a 7.024471,6.979559 0 0 0 0.625,0.07813 7.0246128,6.9797433 0 0 1 -0.625,-0.07813 z m 1.84375,0.07031 a 7.0246128,6.9797433 0 0 1 -0.164063,0.01172 7.024471,6.979559 0 0 0 0.164063,-0.01172 z m -1.033203,0.01953 a 7.024471,6.979559 0 0 0 0.425781,0.0098 7.0246128,6.9797433 0 0 1 -0.425781,-0.0098 z"
       id="path1" /><path
       style="fill:#ffa000"
       d="M 15.049503,4.0000443 A 7.024471,6.979559 0 0 0 8.5415408,13.666857 L 25.398586,55.47187 a 7.024471,6.979559 0 1 0 13.03787,-5.190528 L 21.579413,8.4763293 a 7.024471,6.979559 0 0 0 -6.52991,-4.476285 z"
       id="path2" /><path
       style="opacity:0.2"
       d="m 48.736965,5.0040091 a 7.0246128,6.9797433 0 0 0 -6.316032,4.470951 L 25.563548,51.281078 a 7.0246128,6.9797433 0 1 0 13.038133,5.190666 L 55.459066,14.665625 A 7.0246128,6.9797433 0 0 0 48.736965,5.0040091 Z"
       id="path3" /><path
       style="opacity:0.2;fill:#ffffff"
       d="M 15.048828,4 A 7.024471,6.979559 0 0 0 8.0234375,11.433594 7.024471,6.979559 0 0 1 15.048828,5 7.024471,6.979559 0 0 1 21.580078,9.4765625 L 38.435547,51.28125 a 7.024471,6.979559 0 0 1 0.541015,2.304688 7.024471,6.979559 0 0 0 -0.541015,-3.304688 L 21.580078,8.4765625 A 7.024471,6.979559 0 0 0 15.048828,4 Z"
       id="path4" /><path
       style="fill:#ffca28"
       d="m 48.736965,4.0040213 a 7.0246128,6.9797433 0 0 0 -6.316032,4.470951 L 25.563548,50.28109 a 7.0246128,6.9797433 0 1 0 13.038133,5.190666 L 55.459066,13.665637 A 7.0246128,6.9797433 0 0 0 48.736965,4.0040213 Z"
       id="path5" /><path
       style="opacity:0.2;fill:#ffffff"
       d="M 48.736328,4.0039062 A 7.0246128,6.9797433 0 0 0 42.421875,8.4746094 L 25.564453,50.28125 a 7.0246128,6.9797433 0 0 0 -0.539062,3.244141 7.0246128,6.9797433 0 0 1 0.539062,-2.244141 L 42.421875,9.4746094 A 7.0246128,6.9797433 0 0 1 48.736328,5.0039062 7.0246128,6.9797433 0 0 1 55.974609,11.5 7.0246128,6.9797433 0 0 0 48.736328,4.0039062 Z"
       id="path6-3" /></g></svg>

<svg xmlns="http://www.w3.org/2000/svg" width="64" height="64" version="1.1">
 <path style="opacity:0.2" d="M 15.048828 5 A 7.024471 6.979559 0 0 0 8.5410156 14.666016 L 25.398438 56.472656 A 7.024471 6.979559 0 0 0 30.808594 60.894531 A 7.0246128 6.9797433 0 0 1 25.564453 51.28125 L 32 35.320312 L 21.580078 9.4765625 A 7.024471 6.979559 0 0 0 15.048828 5 z M 30.810547 60.894531 A 7.024471 6.979559 0 0 0 31.435547 60.972656 A 7.0246128 6.9797433 0 0 1 30.810547 60.894531 z M 32.654297 60.964844 A 7.0246128 6.9797433 0 0 1 32.490234 60.976562 A 7.024471 6.979559 0 0 0 32.654297 60.964844 z M 31.621094 60.984375 A 7.024471 6.979559 0 0 0 32.046875 60.994141 A 7.0246128 6.9797433 0 0 1 31.621094 60.984375 z"/>
 <path style="fill:#ffa000" d="M 15.049503,4.0000443 A 7.024471,6.979559 0 0 0 8.5415408,13.666857 L 25.398586,55.47187 a 7.024471,6.979559 0 1 0 13.03787,-5.190528 L 21.579413,8.4763293 a 7.024471,6.979559 0 0 0 -6.52991,-4.476285 z"/>
 <path style="opacity:0.2" d="m 48.736965,5.0040091 a 7.0246128,6.9797433 0 0 0 -6.316032,4.470951 L 25.563548,51.281078 a 7.0246128,6.9797433 0 1 0 13.038133,5.190666 L 55.459066,14.665625 A 7.0246128,6.9797433 0 0 0 48.736965,5.0040091 Z"/>
 <path style="opacity:0.2;fill:#ffffff" d="M 15.048828 4 A 7.024471 6.979559 0 0 0 8.0234375 11.433594 A 7.024471 6.979559 0 0 1 15.048828 5 A 7.024471 6.979559 0 0 1 21.580078 9.4765625 L 38.435547 51.28125 A 7.024471 6.979559 0 0 1 38.976562 53.585938 A 7.024471 6.979559 0 0 0 38.435547 50.28125 L 21.580078 8.4765625 A 7.024471 6.979559 0 0 0 15.048828 4 z"/>
 <path style="fill:#ffca28" d="m 48.736965,4.0040213 a 7.0246128,6.9797433 0 0 0 -6.316032,4.470951 L 25.563548,50.28109 a 7.0246128,6.9797433 0 1 0 13.038133,5.190666 L 55.459066,13.665637 A 7.0246128,6.9797433 0 0 0 48.736965,4.0040213 Z"/>
 <path style="opacity:0.2;fill:#ffffff" d="M 48.736328 4.0039062 A 7.0246128 6.9797433 0 0 0 42.421875 8.4746094 L 25.564453 50.28125 A 7.0246128 6.9797433 0 0 0 25.025391 53.525391 A 7.0246128 6.9797433 0 0 1 25.564453 51.28125 L 42.421875 9.4746094 A 7.0246128 6.9797433 0 0 1 48.736328 5.0039062 A 7.0246128 6.9797433 0 0 1 55.974609 11.5 A 7.0246128 6.9797433 0 0 0 48.736328 4.0039062 z"/>
</svg>
